X: 39543
T: Taylor's Quickstep
R: polka
M: 2/4
K: Amixolydian
|:A>B cd|ef gz|G2 BG|dG BG|A>B cd|ea az|g>f gB|A4:|
|:ge e2|ge e2|f2 df|a2 f2|e>d ef|gf ed|BA GB|A4:|

